!!!!SEGMENT: pl-wtm--r-245-n--002_noskowski-zygmunt--piesni-ludowe-na-mazurze.krn
!!!cenid: 18xx:2149
!!!COM: Noskowski, Zygmunt
!!!COM-rismID: pe106604
!!!CDT: 1846/05/02-1909/07/23
!!!CNT: Polish
!!!GTL: Pieśni ludowe
!!!OTL: Na Mazurze
!!!OMV: 002
!!!PDT:
!!!AGN: Secular; Song
!!!SMS-siglum: PL-Wtm
!!!SMS-shelfmark: R 245/N
!!!SMS-shelfwork: 001-002 G
!!!SMS-variant:
!!!SMS-altvar:
!!!NIFC-rismSourceID: 1001100021
!!!NIFC-rismChildID: 1001100021
!!!NIFC-islandoraID:
!!!URL-pdf-islandora:
!!!URL-scan:
!!!ONB-nifc: UWAGA: w zbiorze: 1. Młynarz, 2. Na Mazurze, 3. Kędy jedziesz?, 4. Hasło Liry Łódzkiej
!!!OMD: Allegretto animato
!!!AIN: 1 bass 1 tenor
!!!key:
**kern	**text	**mod-text	**mod-text	**dynam	**mod-dynam	**kern	**text	**text	**dynam
*part2	*part2	*part2	*part2	*part2	*part2	*part1	*part1	*part1	*part1
*staff2	*staff2	*staff2	*staff2	*	*	*staff1	*staff1	*staff1	*
*Ibass	*	*	*	*	*	*Itenor	*	*	*
*I"Basy	*	*	*	*	*	*I"Tenory	*	*	*
*mI"Basso	*	*	*	*	*	*mI"Tenore	*	*	*
*I'	*	*	*	*	*	*I'	*	*	*
*mI'B	*	*	*	*	*	*mI'T	*	*	*
*clefF4	*	*	*	*	*	*clefG2	*	*	*
*	*	*	*	*	*	*ITrd7c12	*	*	*
*k[b-e-a-d-]	*	*	*	*	*	*k[b-e-a-d-]	*	*	*
*A-:	*	*	*	*	*	*A-:	*	*	*
*M3/4	*	*	*	*	*	*M3/4	*	*	*
*>[A,A,B]	*>[A,A,B]	*	*	*>[A,A,B]	*>[A,A,B]	*>[A,A,B]	*>[A,A,B]	*>[A,A,B]	*>[A,A,B]
=1	=1	=1	=1	=1	=1	=1	=1	=1	=1
*>A	*>A	*>A	*	*>A	*>A	*>A	*>A	*>A	*>A
*^	*	*	*	*	*	*^	*	*	*
*	*	*above	*above	*	*	*	*	*	*	*	*below
!	!	!	!	!	!LO:DY:b:rj	!	!	!LO:TX:a:t=Nu Mazurze! Melodja ludowa \nułożył Z. Noskowski	!	!	!LO:DY:rj
4E-/	4E-\	Oj!	Oj!	.	p	p	(8G/L	(8E-\L	Da-	.	p
.	.	.	.	.	.	.	8A-/J)	8F\J)	.	.	.
!	!	!	!	!	!LO:HP:b	!	!	!	!	!	!
8E-/	8E-\	da-	da-	.	<	<	2B-/	2G\	-na	.	.
!	!	!	!	!	!	!	!	!	!	!	!LO:HP:b
8BB-/	8BB-\	-na	-na	.	.	.	.	.	.	.	<
8C/	8C\	da-	da-	.	.	.	.	.	.	.	.
8D-/	8D-\	-na	-na	.	[	[	.	.	.	.	[[
=2	=2	=2	=2	=2	=2	=2	=2	=2	=2	=2	=2
!	!	!	!	!	!LO:DY:b:rj	!	!	!	!	!	!LO:DY:rj
4E-/	4E-\	oj	oj	.	mf	mf	(8B-/L	(8G\L	da-	.	mf
.	.	.	.	.	.	.	8c/J)	8A-\J)	.	.	.
8E-/	8E-\	da-	da-	.	<	<	2d-/	2B-\	-na	.	.
8BB-/	8BB-\	-na	-na	.	.	.	.	.	.	.	<
8C/	8C\	da-	da-	.	.	.	.	.	.	.	.
8D-/	8D-\	-na	-na	.	[	[	.	.	.	.	[
=3	=3	=3	=3	=3	=3	=3	=3	=3	=3	=3	=3
!	!	!	!	!	!LO:DY:rj	!	!	!	!	!	!LO:DY:rj
8F/	8F\	oj!	oj!	.	f	f	8d-/	8A-\	Oj!	.	f
8En/	8En\	ta	ta	.	.	.	8c/	8A-\	ta	.	.
4F/	4F\	da	da	.	.	.	4d-/	4A-\	da	.	.
4A-/	4BB-\	da-	da-	.	.	.	4f/	4d-\	da-	.	.
=4	=4	=4	=4	=4	=4	=4	=4	=4	=4	=4	=4
2.G/	2.E-\	-na!	-na!	.	.	.	2.e-/	2.B-\	-na!	.	.
=5	=5	=5	=5	=5	=5	=5	=5	=5	=5	=5	=5
!	!LO:N:vis=8	!	!	!	!	!	!LO:N:vis=8	!LO:TX:t=P:problem=klamra łącząca teksty	!	!	!
8.A-/	8.A-\	.	Nu	Kie-	.	.	8.A-/	8.A-\	Nu	Kie-	.
16A-/	16A-\	.	Ma-	-dy	.	.	16A-/	16A-\	Ma-	-dy	.
4A-/	(8A-\L	.	-zu-	tup-	.	.	4c/	4c\	-zu-	tup-	.
.	8G\J)	.	.	.	.	.	.	.	.	.	.
4A-/	(>8F\L	.	-rze	-nie	.	.	4e-/	4c\	-rze	-nie	.
.	8E-\J)	.	.	.	.	.	.	.	.	.	.
!!LO:LB:g=original
=6	=6	=6	=6	=6	=6	=6	=6	=6	=6	=6	=6
8.A-/	8.D-\	.	bij	chłop	.	.	8.f/	8.d-\	bij	chłop	.
16A-/	16D-\	.	nóż-	nóż-	.	.	16f/	16d-\	nóż-	nóż-	.
4A-/	4F\	.	-ka-	-ka-	.	.	4d-/	4d-\	-ka-	-ka-	.
4A-/	4D-\	.	-mi	-mi	.	.	(8a-/L	(8f\L	-mi	-mi	.
.	.	.	.	.	.	.	8f/J)	8d-\J)	.	.	.
=7	=7	=7	=7	=7	=7	=7	=7	=7	=7	=7	=7
!	!	!	!	!	!	!	!LO:N:vis=8	!	!	!	!
8.A-/	8.C\	.	I	I	.	.	8.e-/	8.e-\	I	I	.
16A-/	16C\	.	daj	za-	.	.	16e-/	16e-\	daj	za-	.
4An/	(8F\L	.	og-	-krze-	.	.	4c/	4c\	og-	-krze-	.
.	8G-X\J)	.	.	.	.	.	.	.	.	.	.
4F/	4F\	.	-nia	-sze	.	.	4e-/	4A\	-nia	-sze	.
=8	=8	=8	=8	=8	=8	=8	=8	=8	=8	=8	=8
8.F/	8.BB-\	.	pod-	pod-	.	.	8.d-/	8.B-\	pod-	pod-	.
16F/	16BB-\	.	-ków-	-ków-	.	.	16d-/	16B-\	-ków-	-ków-	.
4G/	(8E-\L	.	-ka-	-ka-	.	.	4B-/	4B-\	-ka-	-ka-	.
.	8F\J)	.	.	.	.	.	.	.	.	.	.
4G/	4E-\	.	-mi,	-mi	.	.	(8d-/L	(8d-\L	-mi,	-mi	.
.	.	.	.	.	.	.	8c/J)	8c\J)	.	.	.
=9	=9	=9	=9	=9	=9	=9	=9	=9	=9	=9	=9
8A-/	8A-\	.	A	Kiej	.	.	8A-/	8A-\	A	Kiej	.
8A-/	8A-\	.	ty	ma	.	.	8c/	8c\	ty	ma	.
4A-/	4AA-\	.	Zoś-	dziew-	.	.	4e-/	4c\	Zoś-	dziew-	.
4E-/	4C\	.	-ka	-czę	.	.	(8c/L	4A-\	-ka	-czę	.
.	.	.	.	.	.	.	8A-/J)	.	.	.	.
!!LO:LB:g=original
=10	=10	=10	=10	=10	=10	=10	=10	=10	=10	=10	=10
8E-/	8E-\	.	skacz-	jak	.	.	8G/	8G\	skacz-	jak	.
8E-/	8E-\	.	-że	a-	.	.	8B-/	8G\	-że	a-	.
4F/	4BB-\	.	ży-	-nio-	.	.	4d-/	4A-\	ży-	-nio-	.
4E-/	4E-\	.	-wo,	-ła,	.	.	(<8B-/L	4G\	-wo,	-ła,	.
.	.	.	.	.	.	.	8G/J)	.	.	.	.
=11	=11	=11	=11	=11	=11	=11	=11	=11	=11	=11	=11
8F/	8F\	.	Że-	O-	.	.	8A-/	8A-\	Że-	O-	.
8F/	8D-\	.	-byś	-tóż	.	.	8c/	8A-\	-byś	-tóż	.
4E-/	4C\	.	nie	chwi-	.	.	4e-/	4A-\	nie	chwi-	.
4En/	4C\	.	cho-	-la	.	.	(<8c/L	4A-\	cho-	-la	.
.	.	.	.	.	.	.	8A-/J)	.	.	.	.
=12	=12	=12	=12	=12	=12	=12	=12	=12	=12	=12	=12
8F/	8D-\	.	-dzi-	mu	.	.	8B-/	8B-\	-dzi-	mu	.
8En/	8C\	.	-ła	we-	.	.	8G/	8G\	-ła	we-	.
8F/L	8F\L	.	krzy-	-so-	.	.	4A-/	4F\	krzy-	-so-	.
8E-X/J	8E-\J	.	.	.	.	.	.	.	.	.	.
8D-/L	8D-\L	.	-wo	-ła.	.	.	4A-/	4F\	-wo	-ła.	.
8BB-/J	8BB-\J	.	.	.	.	.	.	.	.	.	.
=13	=13	=13	=13	=13	=13	=13	=13	=13	=13	=13	=13
8.C/	8.AA-\	.	Da-	Kie-	.	.	8.A-/	8.G-X\	Da-	Kie-	.
16E-/	16C\	.	-na	-dy	.	.	16A-/	16G-\	-na	-dy	.
4G-X/	4E-\	.	da-	o-	.	.	4c/	4A-\	da-	o-	.
4G-/	4C\	.	-na	-bie-	.	.	4e-/	4A-\	-na	-bie-	.
!!LO:LB:g=original
=14	=14	=14	=14	=14	=14	=14	=14	=14	=14	=14	=14
8.F/	8.D-\	.	na-	-ma	.	.	8.f/	8.A-\	na-	-ma	.
16F/	16D-\	.	-o-	rę-	.	.	16f/	16A-\	-o-	rę-	.
4A-/	4F\	.	-ko-	-ka-	.	.	4d-/	4d-\	-ko-	-ka-	.
(8A-/L	(8F\L	.	-ło	-mi	.	.	(<8a-/L	4d-\	-ło	-mi	.
8B-/J)	8G\J)	.	.	.	.	.	8f/J)	.	.	.	.
=15	=15	=15	=15	=15	=15	=15	=15	=15	=15	=15	=15
8.c/	8.A-\	.	I	Trzy-	.	.	8.e-/	8.c\	I	Trzy-	.
16c/	16A-\	.	o-	-mam	.	.	16e-/	16c\	o-	-mam	.
4A-/	4E-\	.	-bróć-	ta-	.	.	4c/	4A-\	-bróć-	ta-	.
4G-X/	4C\	.	-wa	-kie	.	.	4e-/	4A-\	-wa	-kie	.
=16	=16	=16	=16	=16	=16	=16	=16	=16	=16	=16	=16
8.F/	8.D-\	.	się	dwie	.	.	8.d-/	8.A-\	się	dwie	.
16F/	16D-\	.	we-	fi-	.	.	16d-/	16A-\	we-	fi-	.
4G-X/	4E-\	.	-so-	-gu-	.	.	4B-/	4G-X\	-so-	-gu-	.
4E-/	(>8BB-\L	.	-ło,	-ry,	.	.	(<8d-/L	4G-\	-ło,	-ry,	.
.	8C\J)	.	.	.	.	.	8c/J)	.	.	.	.
=17	=17	=17	=17	=17	=17	=17	=17	=17	=17	=17	=17
8F/	8D-\	.	Wte-	To	.	.	8A-/	8F\	Wte-	To	.
8E-/	8C\	.	-dy	mi	.	.	8c/	8A-\	-dy	mi	.
4D-/	4BB-\	.	Ma-	ta-	.	.	4e-/	4G\	Ma-	ta-	.
4E-/	4AA-\	.	-zur	-niec	.	.	(<8c/L	4A-\	-zur	-niec	.
.	.	.	.	.	.	.	8A-/J)	.	.	.	.
!!LO:LB:g=original
=18	=18	=18	=18	=18	=18	=18	=18	=18	=18	=18	=18
8E-/	8AA-\	.	we-	nad	.	.	8G/	8E-\	we-	nad	.
8E-/	8AA-\	.	-sół	tań-	.	.	8B-/	8G\	-sół	tań-	.
4E-/	4AA-\	.	ży-	-ca-	.	.	4d-/	4B-\	ży-	-ca-	.
4E-/	4AA-\	.	-je,	-mi,	.	.	(8B-/L	(8G\L	-je,	-mi,	.
.	.	.	.	.	.	.	8G/J)	8E-\J)	.	.	.
=19	=19	=19	=19	=19	=19	=19	=19	=19	=19	=19	=19
8E-/	8AA-\	.	Kiej	To	.	.	8A-/	8F\	Kiej	To	.
8E-/	8AA-\	.	tań-	mi	.	.	8c/	8A-\	tań-	mi	.
4E-/	4AA-\	.	-cu-	ma-	.	.	4e-/	4c\	-cu-	ma-	.
4E-/	4AA-\	.	-je,	-zur	.	.	(8c/L	(8A-\L	-je,	-zur	.
.	.	.	.	.	.	.	8A-/J)	8F\J)	.	.	.
=20	=20	=20	=20	=20	=20	=20	=20	=20	=20	=20	=20
8E-/	8AA-\	.	kie-	nad	.	.	8B-/	8G\	kie-	nad	.
8D-/	8AA-\	.	-dy	ma-	.	.	8G/	8E-\	-dy	ma-	.
4C/	4AA-\	.	bi-	-zu-	.	.	4A-/	4E-\	bi-	-zu-	.
4A-/	4AA-\	.	-je.	-ry.	.	.	4A-/	4A-\	-je.	-ry.	.
=21:|!	=21:|!	=21:|!	=21:|!	=21:|!	=21:|!	=21:|!	=21:|!	=21:|!	=21:|!	=21:|!	=21:|!
*>B	*>B	*>B	*>B	*	*>B	*>B	*>B	*>B	*>B	*>B	*>B
*	*	*above	*above	*	*	*	*	*	*	*	*
!	!	!	!	!	!LO:DY:b:rj	!	!	!	!	!	!LO:DY:rj
4E-/	4E-\	Oj!	Oj!	.	p	p	(8G/L	(8E-\L	Da-	.	p
.	.	.	.	.	.	.	8A-/J)	8F\J)	.	.	.
8E-/	8E-\	da-	da-	.	.	.	2B-/	2G\	-na	.	.
8BB-/	8BB-\	-na	-na	.	.	.	.	.	.	.	.
8C/	8C\	da-	da-	.	.	.	.	.	.	.	.
8D-/	8D-\	-na	-na	.	.	.	.	.	.	.	.
!!LO:PB:g=original
=22	=22	=22	=22	=22	=22	=22	=22	=22	=22	=22	=22
4E-/	4E-\	Oj!	Oj!	.	.	.	(8c/L	(8A-\L	da-	.	.
.	.	.	.	.	.	.	8d-/J)	8B-\J)	.	.	.
8E-/	8E-\	da-	da-	.	.	.	2e-/	2c\	-na	.	.
!	!	!	!	!	!LO:HP:b:t=cresc	!	!	!	!	!	!LO:HP:t=cresc
8A-/	8A-\	-na	-na	.	<	<	.	.	.	.	<
8G/	8G\	da-	da-	.	.	.	.	.	.	.	.
8F/	8F\	-na	-na	.	.	.	.	.	.	.	.
=23	=23	=23	=23	=23	=23	=23	=23	=23	=23	=23	=23
!	!	!	!	!	!LO:DY:b:rj	!	!	!	!	!	!LO:DY:b:rj
!	!	!	!	!	!	!	!	!	!	!	!LO:MO:mod=[ f
8G/	8G\	oj	oj	.	f	[ f	2e-/	2d-\	da-	.	f
!	!	!	!	!	!LO:HP:b	!	!	!	!	!	!
8A-/	8A-\	ta	ta	.	<	<	.	.	.	.	<
8c/	8c\	da-	da-	.	.	.	.	.	.	.	.
8B-/	8B-\	-na	-na	.	[[	[[	.	.	.	.	.
8G/	8G\	da-	da-	.	.	.	4e-/	4d-\	-na	.	[
8E-/	8E-\	-na	-na	.	.	.	.	.	.	.	.
=24	=24	=24	=24	=24	=24	=24	=24	=24	=24	=24	=24
!	!LO:TX:a:t=P:problem=dwie oddzielne nuty	!	!	!	!LO:DY:b:rj	!LO:DY:b:rj	!	!	!	!	!LO:DY:rj
(8A-/L	4A-\	da-	da-	.	ff	ff	(8e-/L	(8c\L	da-	.	ff
8c/J)	.	.	.	.	.	.	8a-/J)	8e-\J)	.	.	.
[2c/	[2A-\	-na!	-na!	.	.	.	[2a-/	[2e-\	-na!	.	.
=25	=25	=25	=25	=25	=25	=25	=25	=25	=25	=25	=25
2.c/_	2.A-\_	.	.	.	.	.	2.a-/_	2.e-\_	.	.	.
=26	=26	=26	=26	=26	=26	=26	=26	=26	=26	=26	=26
8c/]	8A-\]	.	.	.	.	.	8a-/]	8e-\]	.	.	.
8r	2ryy	.	.	.	.	.	8r	2ryy	.	.	.
4r	.	.	.	.	.	.	4r	.	.	.	.
4r	.	.	.	.	.	.	4r	.	.	.	.
.	8ryy	.	.	.	.	.	.	8ryy	.	.	.
*v	*v	*	*	*	*	*	*	*	*	*	*
*	*	*	*	*	*	*v	*v	*	*	*
==	==	==	==	==	==	==	==	==	==
*-	*-	*-	*-	*-	*-	*-	*-	*-	*-
!!!system-decoration: {(s1,s2)}
!!!RDF**kern: > = above
!!!RDF**kern: < = below
!!!ENC-modern: Leszek Kubiak
!!!END-modern: 2022-08-17
!!!ENC: Marta Lawrence
!!!END: 2021-06-01
!!!ENC: Tomasz Grochalski
!!!END: 2021-05-22
!!!filter-modern: sic -sq | autostem -r | shed -e "s/LO:DY:(a|b|rj)/LO:dy:$1/L" | shed -e "s/TX(.*):t=P:/tx$1:t=P:/LG" | shed -k -e "s/([^a-gA-Gn#X-])[<>]/$1/g" | shed -e "s/LO:DY:t=/LO:dy:t=/L" | modori -m
!!!YEC: Copyright 2022 Narodowy Instytut Fryderyka Chopina (https://polishscores.org)
!!!YEM: License CC-BY-4.0 (https://creativecommons.org/licenses/by/4.0)
